X:258
T:Redowa Polka, aka. JC.263
R:Polka
S:John Clare,Poet,Helpstone (1793-1864)
N:This is the well known Redowa Polka, although untitled in the MS.
N:It raises one or two points. Firstly, polkas were not introduced
N:into this country until 1848, according to V.Sylvester and
N:J.Richardson, yet a couple of tunes ago we were apparently in
N:1834. Secondly,whoever pricked it down was not at all familiar
N:with the polka rhythm, especially the time sig.
N:Either  refers to something other than the
N:collection date,or John Clare put the MS down for a few years and
N:came back to it in a fit of sanity, or enthusiasm for the new dance
N:rhythm, or somebody else entirely was responsible for entering this
N:tune (not by any means rare in fiddlers tune books) Reference t
O:England
A:Northamptonshire
Z:vmp.P. Headford
M:6/8
L:1/8
Q:1/4=120
K:G
\
G/B/d2dd2|dedc BB|GAB GAB|B2A2A2|!
A/B/c2cc2|cdcB AA|FGA FGA|B2G2G2:|!
|:G/B/d2d2c/B/|B2A AGA|A/c/ e2e2d/c/|cB BAB2|!
G/B/d2d2c/e/|A/c/ e2e2d/f/|g3e d/c/B/A/|B2G2G2:|!
|:D2G2G/A/G/F/|E2A2A/B/A/G/|F2DE2F|G/F/G/B/e2d2|!
D2G2G/A/G/F/|E2A2A/B/A/G/|F2DE2F|G2G2G2:|


%abc
%%abc-alias John Clews
%%abc-creator ABCexplorer 1.3.7 [01/01/2010]
%%abc-edited-by www.village-music-project.org.uk
%VMP.Neil Brookes, 15/11/2006
%Revised 12/2008 #28
%Revised 12/2009.
%Multi-voice tunes formatted by Phil Taylor 1/2010
A tunebook from the family of Mr John Hardy, fiddler and retired farmer
from Audlem, Cheshire. He also has a fiddle which was possibly owned by the
author, Mr John Clews of Stoke upon Tern, N. Shropshire.
Mr Clews was not related to JH, but the book was passed on to JH's grandfather
who was also a fiddler.
The signed (in two hands) book is dated 1832. Some of the tunes were possibly
added at a later date. The tunes near the end of the book show an interest
in Scottish airs.
Mr Clews was obviously a skilled musician and wrote the tunes accurately,
with the inclusion of grace notes etc. Some of the marches are arranged
for 2 or 3 voices.
The discovery of this book led to further research and
the discovery of the four  manuscripts belonging to Mr R. Hughes.
Thanks to John Hardy for the loan of photocopies of the MS.
Neil Brookes 2006.

